!!!COM: Claude Goudimel
!!!OMD: Psalm 56: Misericorde à moy povre affligé
**kern	**kern	**kern	**kern
*part4	*part3	*part2	*part1
*staff4	*staff3	*staff2	*staff1
*I"bassus	*I"tenor	*I"contra	*I"superius
*clefF4	*clefC4	*clefC3	*clefC1
*k[b-]	*k[b-]	*k[b-]	*k[b-]
!!LO:TX:omd:t=
*M2/2	*M2/2	*M2/2	*M2/2
*met(c|)	*met(c|)	*met(c|)	*met(c|)
=1	=1	=1	=1
1FF	1F	1A	1c
=2	=2	=2	=2
2GG	2D	2G	2B-
2AA	2C	2E	2A
=3	=3	=3	=3
1FF	1F	1A	1c
=4	=4	=4	=4
2AA	2F	2c	2A
[2GG	[2G	[2B-X	[2d
=5	=5	=5	=5
2GG]	2G]	2B-]	2d]
2FF	2A	2A	2d
=6	=6	=6	=6
1GG	1B-	2G	1d
.	.	[2G	.
=7	=7	=7	=7
1D	1A	4G]	1d
.	.	8F#X\L	.
.	.	8E\J	.
.	.	2F#X	.
=8	=8	=8	=8
1GG	1G	1G	1d
=9	=9	=9	=9
1r	1r	1r	1r
=10	=10	=10	=10
1D	1F	1A	1d
=11	=11	=11	=11
2C	2G	2c	2e
2C	2G	2c	2e
=12	=12	=12	=12
1F	1A	1c	1f
=13	=13	=13	=13
1F	1c	1A	1f
=14	=14	=14	=14
2F	2c	2A	2f
2BB-	2B-	2d	2f
=15	=15	=15	=15
1C	1G	1c	1e
=16	=16	=16	=16
1GG	1B-	1d	1g
=17	=17	=17	=17
1AA	1A	1c#X	1e
=18	=18	=18	=18
1r	1r	1r	1r
=19	=19	=19	=19
1C	1G	1c	1e
=20	=20	=20	=20
2FF	2A	2c	2f
2GG	2G	2B-X	2d
=21	=21	=21	=21
1AA	1E	1A	1c
=22	=22	=22	=22
1C	1E	1G	1c
=23	=23	=23	=23
2BB-	2F	2B-X	2d
2C	2E	2G	2c
=24	=24	=24	=24
2GG	2D	2G	2c
2GG	2D	2G	2Bn
=25	=25	=25	=25
1C	1C	1G	1c
=26	=26	=26	=26
1FF	1c	1A	1f
=27	=27	=27	=27
2BB-	2B-	2F	2d
2FF	2A	2c	2f
=28	=28	=28	=28
2C	2G	2c	2e
2D	2F	2A	[2f
=29	=29	=29	=29
1C	1G	1c	2f]
.	.	.	2e
=30	=30	=30	=30
1FF	1F	1c	1f
=31	=31	=31	=31
1r	1r	1r	1r
=32	=32	=32	=32
1BB-	1F	1B-X	1d
=33	=33	=33	=33
2GG	2B-	2d	2g
2BB-	2B-	2d	2f
=34	=34	=34	=34
1FF	1A	1c	1f
=35	=35	=35	=35
1C	1G	1c	1e
=36	=36	=36	=36
2F	2A	2c	2f
2BB-	2B-	2d	2f
=37	=37	=37	=37
2F	2c	2A	2f
2A	2c	[2c	2e
=38	=38	=38	=38
1G	1d	2c]	1g
.	.	2B	.
=39	=39	=39	=39
1C	1c	1c	1e
=40	=40	=40	=40
1r	1r	1r	1r
=41	=41	=41	=41
1F	1c	1A	1f
=42	=42	=42	=42
2D	2F	2A	2f
2C	2G	2c	2e
=43	=43	=43	=43
1F	1A	1c	1f
=44	=44	=44	=44
1BB-	1F	1B-X	1d
=45	=45	=45	=45
2GG	2G	2B-X	2d
2FF	2A	2c	2f
=46	=46	=46	=46
2BB-	2B-	2d	2f
2FF	2A	2c	[2f
=47	=47	=47	=47
1C	1G	1c	2f]
.	.	.	2e
=48	=48	=48	=48
1FF	1A	1c	1f
=49	=49	=49	=49
1r	1r	1r	1r
=50	=50	=50	=50
1F	1A	1c	1f
=51	=51	=51	=51
2D	2A	2d	2f
2F	2A	2c	2f
=52	=52	=52	=52
1C	1G	1c	1e
=53	=53	=53	=53
1F	1A	1c	1f
=54	=54	=54	=54
2BB-	2B-	2d	2f
2FF	2A	2c	2f
=55	=55	=55	=55
2C	2G	2c	2e
2D	2F	2F	2A
=56	=56	=56	=56
1C	1E	1G	1c
=57	=57	=57	=57
1FF	1C	1F	1A
=58	=58	=58	=58
1FF	1c	1A	1f
=59	=59	=59	=59
2BB-	2B-	2F	2d
2FF	2A	2c	2f
=60	=60	=60	=60
2C	2G	2c	2f
2C	2G	2c	2e
=61	=61	=61	=61
1FF;	1F;	1A;	1f;
==	==	==	==
*-	*-	*-	*-
!!!software: music21 v.9.7.1
!!!software: music21 v.8.3.0
!!!RDF**kern: > = above
!!!RDF**kern: < = below
